X:1
T:Title
%%score { ( 1 3 ) | 2 }
L:1/8
Q:1/4=95
M:4/4
K:C
V:1 treble nm="Grand Piano"
V:3 treble 
V:2 bass 
V:1
 cBAG FEDC | [B,D]2 [CE][DF] [CE]4 | [B,D][CE][DF][B,D] [CE][EG] [Ec]2 | [DB]2 [CA]2 [G,B,G]4 | %4
w: J.~Lincoln~Hall * * * * * * *||||
 cBAG FEDC | [B,D]2 [CE][DF] E4 | DDGD DD[^Fc][DF] | [DG]6 z2 | [Ec]2 [EB]2 [Ed][Ec][EG]E | %9
w: |||||
 G2 ^F2 =F4 | d2 ^c2 edBG | [_EA]4 [=EG]4 | [Ec]2 [EB]2 [Ed][Ec][EG][CE] | [EG]2 [_EA]2 [DB]4 | %14
w: |||||
 [Gd][Ge][Gd][Ge] [^Fd][EFc][DFB][CFA] | [Fd]6 z2 | e8 | e2 _e2 d4 | f8 | [A_e]4 [G=e]4 | e8 | %21
w: |||||||
 [Af]2 [Bf]2 [c_e]4 | e4 f4 | [ce]6 z2 |] %24
w: |||
V:2
 CB,A,G, F,E,D,C, | [G,,G,]2 [G,,G,][G,,G,] [C,G,]4 | %2
 [G,,G,][G,,G,][G,,G,][G,,G,] [C,G,][C,G,] [A,,A,]2 | [D,G,]2 [D,^F,]2 G,,4 | CB,A,G, F,E,D,C, | %5
 [G,,G,]2 [G,,G,][G,,G,] [C,G,C]4 | [D,G,B,][D,G,B,][D,G,B,][D,G,B,] [D,^F,C][D,F,C][D,A,][D,C] | %7
 [G,B,]6 z2 | [C,G,]2 [G,,G,]2 [C,G,][C,G,][C,G,][C,G,C] | [G,CE]2 [G,A,_E]2 [G,B,D]4 | %10
 [G,B,F]2 [G,_B,E]2 [G,=B,F][G,B,F][G,DF][G,B,F] | [C,C]4 [C,C]4 | %12
 [C,G,]2 [G,,G,]2 [C,G,][C,G,][C,G,][C,G,] | [C,C]2 [C,G,]2 [D,G,]4 | %14
 [D,B,][D,B,][D,B,][D,B,] [D,A,]D,D,D, | [G,B,]6 z2 | [C,C]2 [C,C]2 [C,C][C,C][C,C][C,C] | %17
 [G,CG]2 [G,A,^F]2 [G,B,=F]4 | [G,B,]2 [G,B,]2[K:bass] [G,B,][G,B,][G,B,][G,B,] | %19
 [C,^F,C]4 [C,G,C]4 | [C,C]2 [C,C]2 [C,C][C,C][C,C][C,C] | [F,C]2 [F,C]2 [^F,C]4 | %22
 [G,CG][G,C][G,C][G,C] [G,B,G]2[K:bass] [G,B,]2 | [C,G,C]6 z2 |] %24
V:3
 x8 | x8 | x8 | x8 | x8 | x8 | x8 | x8 | x8 | x8 | x8 | x8 | x8 | x8 | x8 | x8 | c2 B2 dcGE | x8 | %18
 d2 ^c2 edBG | x8 | c2 B2 dcGE | x8 | z AGA z2 d2 | x8 |] %24

